X: 1
T:Noon Lasses, The
R:reel
H:A version of Lord McDonald's, #187
D:Skylark
D:Sean Smyth: The Blue Fiddle
Z:id:hn-reel-738
M:C|
K:G
G2BG AG{c}BG|~G2BG {A}GEDE|G2BG {c}AGAB|1 {c}BAGE {A}EDDE:|2 {c}BAGE {A}EDD2||
|:d3B ~A3B|d^cdB {c}BA{c}AB|d3B A2cB|{c}BAGE {A}EDD2:|
|:dgbg agbg|dgbg agef|~g3e dedB|1 {c}BAGE {A}EDD2:|2 {c}BAGE {A}EDDg:|
edBg edBg|edBA GEEg|edBg edBA|GAGE EDDg|
edBg edBg|edBA GEE2|ed (3Bcd efg2|GAGE EDEF||
